resources/svg/brands/facebook-f.svg

<svg fill="currentColor" xmlns="http://www.w3.org/2000/svg" viewBox="0 0 320 512"><!--! Font Awesome Free 7.1.0 by @fontawesome - https://fontawesome.com License - https://fontawesome.com/license/free (Icons: CC BY 4.0, Fonts: SIL OFL 1.1, Code: MIT License) Copyright 2025 Fonticons, Inc. --><path fill="currentColor" d="M80 299.3l0 212.7 116 0 0-212.7 86.5 0 18-97.8-104.5 0 0-34.6c0-51.7 20.3-71.5 72.7-71.5 16.3 0 29.4 .4 37 1.2l0-88.7C291.4 4 256.4 0 236.2 0 129.3 0 80 50.5 80 159.4l0 42.1-66 0 0 97.8 66 0z"/></svg>

<svg fill="currentColor" xmlns="http://www.w3.org/2000/svg" viewBox="0 0 320 512"><!--! Font Awesome Free 6.7.2 by @fontawesome - https://fontawesome.com License - https://fontawesome.com/license/free (Icons: CC BY 4.0, Fonts: SIL OFL 1.1, Code: MIT License) Copyright 2024 Fonticons, Inc. --><path d="M80 299.3V512H196V299.3h86.5l18-97.8H196V166.9c0-51.7 20.3-71.5 72.7-71.5c16.3 0 29.4 .4 37 1.2V7.9C291.4 4 256.4 0 236.2 0C129.3 0 80 50.5 80 159.4v42.1H14v97.8H80z"/></svg>
